build/img/icon-hired.svg

<svg width="35" height="35" viewBox="0 0 35 35" fill="none" xmlns="http://www.w3.org/2000/svg">
<path d="M31.2638 27.8931C31.639 27.3746 31.8609 26.7384 31.8609 26.0511V21.9434C31.8609 21.5658 31.5548 21.2598 31.1773 21.2598H28.1222C26.7099 21.2598 25.5609 22.4087 25.5609 23.8211V26.0511C25.5609 26.738 25.7826 27.3738 26.1573 27.8921C25.69 27.9679 25.2404 28.1176 24.8211 28.3367C23.8713 26.9195 22.3152 25.9421 20.5271 25.7772C20.5201 25.7752 20.513 25.7738 20.506 25.7721C21.1457 25.0577 21.5357 24.1151 21.5357 23.0829V17.5C21.5357 17.1225 21.2296 16.8164 20.8521 16.8164H16.6999C14.9157 16.8164 13.4643 18.2679 13.4643 20.052V23.0828C13.4643 24.1151 13.8543 25.0576 14.494 25.772C14.487 25.7737 14.4799 25.7752 14.4729 25.7772C12.6846 25.942 11.1284 26.9196 10.1787 28.337C9.75926 28.1179 9.30959 27.9681 8.84249 27.8923C9.21724 27.374 9.43906 26.7381 9.43906 26.0511V21.9434C9.43906 21.5658 9.13295 21.2598 8.75547 21.2598H5.70035C4.28805 21.2598 3.13906 22.4087 3.13906 23.8211V26.0511C3.13906 26.7385 3.36103 27.3746 3.73618 27.8931C1.62025 28.2389 0 30.0791 0 32.2913V34.3164C0 34.694 0.306113 35 0.683594 35H34.3164C34.6939 35 35 34.694 35 34.3164V32.2913C35 30.0791 33.3797 28.2389 31.2638 27.8931ZM4.50625 23.8211C4.50625 23.1626 5.04191 22.627 5.70035 22.627H8.07188V23.4595C8.07188 23.8677 7.73979 24.1998 7.33161 24.1998H4.50625V23.8211ZM4.50625 25.567H7.33161C7.59206 25.567 7.84144 25.5192 8.07188 25.4324V26.0511C8.07188 27.0341 7.27214 27.8339 6.28906 27.8339C5.30599 27.8339 4.50625 27.0341 4.50625 26.0511V25.567ZM6.72978 29.2011L6.28906 29.6418L5.84835 29.2011H6.72978ZM9.19789 31.564V33.6328H1.36719V32.2913C1.36719 30.758 2.48985 29.4826 3.95616 29.2424L5.80569 31.0919C5.93394 31.2201 6.10777 31.2921 6.28906 31.2921C6.47035 31.2921 6.64419 31.2201 6.77243 31.0919L8.62251 29.2417C8.94927 29.2949 9.26352 29.4003 9.55637 29.5544C9.32477 30.1809 9.19789 30.8579 9.19789 31.564ZM17.5001 25.7515C16.0286 25.7515 14.8315 24.5543 14.8315 23.0829V22.1794H18.917C19.37 22.1794 19.7965 22.0637 20.1686 21.8604V23.0829C20.1686 24.5543 18.9715 25.7515 17.5001 25.7515ZM18.6916 27.1186L17.5 28.3102L16.3084 27.1186H18.6916ZM14.8314 20.052H14.8315C14.8315 19.0217 15.6696 18.1836 16.6999 18.1836H20.1685V19.5606C20.1685 20.2508 19.607 20.8123 18.9169 20.8123H14.8314V20.052ZM24.4349 33.6328H23.1055H11.8945H10.5651V32.2656H15.0163C15.3938 32.2656 15.6999 31.9596 15.6999 31.582C15.6999 31.2045 15.3938 30.8984 15.0163 30.8984H10.6151C10.9081 28.9556 12.4633 27.422 14.4158 27.1595L17.0166 29.7603C17.1501 29.8938 17.3251 29.9605 17.5 29.9605C17.6749 29.9605 17.8499 29.8938 17.9834 29.7603L20.5842 27.1595C22.755 27.4513 24.4349 29.3146 24.4349 31.564V33.6328ZM26.9281 23.8211C26.9281 23.1626 27.4638 22.627 28.1222 22.627H30.4937V23.4595C30.4937 23.8677 30.1617 24.1998 29.7535 24.1998H26.9281V23.8211ZM26.9281 25.567H29.7535C30.0139 25.567 30.2633 25.5192 30.4937 25.4324V26.0511C30.4937 27.0341 29.694 27.8339 28.7109 27.8339C27.7279 27.8339 26.9281 27.0341 26.9281 26.0511V25.567ZM29.1516 29.2011L28.7109 29.6418L28.2702 29.2011H29.1516ZM25.802 33.6328V31.564C25.802 30.8578 25.6752 30.1809 25.4435 29.5542C25.7362 29.4 26.0504 29.2947 26.3772 29.2416L28.2275 31.0919C28.3557 31.2201 28.5296 31.2921 28.7109 31.2921C28.8922 31.2921 29.066 31.2201 29.1942 31.0919L31.0438 29.2424C32.5101 29.4826 33.6327 30.758 33.6327 32.2913V33.6328H25.802Z"/>
<path d="M20.8689 4.4665C20.6019 4.19956 20.1692 4.19956 19.9021 4.4665L16.5477 7.82097L15.0976 6.37086C14.8306 6.10385 14.3979 6.10385 14.1309 6.37079C13.8639 6.63773 13.8639 7.07059 14.1309 7.3376L16.0643 9.27107C16.1926 9.39925 16.3664 9.4713 16.5477 9.4713C16.729 9.4713 16.9028 9.39925 17.0311 9.27107L20.8689 5.43324C21.1359 5.1663 21.1359 4.73345 20.8689 4.4665Z"/>
<path d="M20.295 0.592814C19.9503 0.439074 19.5461 0.593908 19.3923 0.938712C19.2385 1.28352 19.3934 1.68773 19.7382 1.84147C21.7205 2.72556 23.0015 4.69889 23.0015 6.86875C23.0015 9.90227 20.5335 12.3702 17.5 12.3702C14.4664 12.3702 11.9985 9.90227 11.9985 6.86875C11.9985 4.7101 13.2702 2.74087 15.2382 1.85199C15.5823 1.69661 15.7353 1.29165 15.5798 0.947599C15.4244 0.603478 15.0193 0.450558 14.6755 0.605939C12.2188 1.71555 10.6313 4.17382 10.6313 6.86868C10.6313 10.6561 13.7126 13.7374 17.5 13.7374C21.2873 13.7374 24.3686 10.6561 24.3686 6.86875C24.3686 4.15987 22.7696 1.69641 20.295 0.592814Z"/>
<path d="M17.5245 0H17.5C17.1225 0 16.8164 0.306045 16.8164 0.683594C16.8164 1.06114 17.1225 1.36719 17.5 1.36719H17.518C17.5191 1.36719 17.5202 1.36719 17.5213 1.36719C17.8974 1.36719 18.2031 1.06326 18.2049 0.686807C18.2066 0.309258 17.902 0.00177734 17.5245 0Z" fill="#00B2FF"/>
<path d="M17.9832 31.0987C17.8562 30.9716 17.6798 30.8984 17.5 30.8984C17.3202 30.8984 17.1438 30.9716 17.0167 31.0987C16.8896 31.2259 16.8164 31.4022 16.8164 31.582C16.8164 31.7618 16.8895 31.9382 17.0167 32.0653C17.1439 32.1925 17.3202 32.2656 17.5 32.2656C17.6798 32.2656 17.8562 32.1925 17.9832 32.0653C18.1104 31.9382 18.1836 31.7618 18.1836 31.582C18.1836 31.4022 18.1104 31.2259 17.9832 31.0987Z"/>
</svg>

<svg width="35" height="35" fill="none" xmlns="http://www.w3.org/2000/svg"><path d="M31.264 27.893a3.132 3.132 0 00.597-1.842v-4.108a.684.684 0 00-.684-.683h-3.055a2.564 2.564 0 00-2.561 2.561v2.23c0 .687.222 1.323.596 1.841a4.402 4.402 0 00-1.336.445 5.817 5.817 0 00-4.294-2.56l-.021-.005a4.02 4.02 0 001.03-2.69V17.5a.684.684 0 00-.684-.684H16.7a3.24 3.24 0 00-3.236 3.236v3.03a4.02 4.02 0 001.03 2.69l-.021.005a5.816 5.816 0 00-4.294 2.56c-.42-.22-.87-.369-1.337-.445a3.132 3.132 0 00.597-1.84v-4.109a.684.684 0 00-.684-.683H5.7a2.564 2.564 0 00-2.56 2.561v2.23c0 .688.221 1.324.596 1.842A4.464 4.464 0 000 32.291v2.025c0 .378.306.684.684.684h33.632a.684.684 0 00.684-.684v-2.025a4.464 4.464 0 00-3.736-4.398zM4.506 23.821c0-.658.536-1.194 1.194-1.194h2.372v.832a.74.74 0 01-.74.74H4.506v-.378zm0 1.746h2.826c.26 0 .51-.048.74-.135v.62c0 .982-.8 1.782-1.783 1.782-.983 0-1.783-.8-1.783-1.783v-.484zm2.224 3.634l-.44.44-.442-.44h.882zm2.468 2.363v2.069h-7.83V32.29a3.095 3.095 0 012.588-3.049l1.85 1.85a.684.684 0 00.966 0l1.85-1.85c.327.053.642.158.934.312a5.784 5.784 0 00-.358 2.01zm8.302-5.813a2.672 2.672 0 01-2.668-2.668v-.904h4.085c.453 0 .88-.115 1.252-.319v1.223a2.672 2.672 0 01-2.669 2.669zm1.192 1.368L17.5 28.31l-1.192-1.191h2.384zm-3.86-7.067a1.87 1.87 0 011.868-1.868h3.469v1.377c0 .69-.562 1.251-1.252 1.251H14.83v-.76zm9.603 13.58h-13.87v-1.366h4.451a.684.684 0 100-1.368h-4.4a4.455 4.455 0 013.8-3.738l2.6 2.6a.682.682 0 00.967 0l2.601-2.6a4.451 4.451 0 013.85 4.404v2.069zm2.493-9.81c0-.66.536-1.195 1.194-1.195h2.372v.832a.74.74 0 01-.74.74h-2.826v-.378zm0 1.745h2.825c.26 0 .51-.048.74-.135v.62c0 .982-.799 1.782-1.782 1.782s-1.783-.8-1.783-1.783v-.484zm2.224 3.634l-.441.44-.44-.44h.88zm-3.35 4.432v-2.069c0-.706-.127-1.383-.358-2.01.292-.154.606-.26.933-.312l1.85 1.85a.684.684 0 00.967 0l1.85-1.85a3.095 3.095 0 012.589 3.05v1.34h-7.831zM20.869 4.466a.684.684 0 00-.967 0l-3.354 3.355-1.45-1.45a.684.684 0 10-.967.967l1.933 1.933a.684.684 0 00.967 0l3.838-3.838a.684.684 0 000-.966z"/><path d="M20.295.593a.684.684 0 00-.557 1.248 5.51 5.51 0 013.264 5.028A5.508 5.508 0 0117.5 12.37a5.508 5.508 0 01-5.502-5.501 5.515 5.515 0 013.24-5.017.683.683 0 10-.563-1.246 6.885 6.885 0 00-4.044 6.263 6.877 6.877 0 006.869 6.868 6.876 6.876 0 006.869-6.868A6.88 6.88 0 0020.295.593z"/><path d="M17.524 0H17.5a.684.684 0 000 1.367h.021A.684.684 0 0017.524 0z" fill="#00B2FF"/><path d="M17.983 31.099a.688.688 0 00-.483-.2.689.689 0 00-.483.2.689.689 0 00-.2.483.684.684 0 00.683.683.688.688 0 00.684-.683.689.689 0 00-.2-.483z"/></svg>
